src/4-icons/button.svg

<svg width="260" height="260" viewBox="0 0 260 260" fill="none" xmlns="http://www.w3.org/2000/svg"><path fill-rule="evenodd" clip-rule="evenodd" d="M126.375 160H60c-33.137 0-60-26.863-60-60s26.863-60 60-60h140c33.137 0 60 26.863 60 60 0 30.991-23.496 56.494-53.646 59.668l2.113 1.756c.66.406 1.254.922 1.753 1.534a6.725 6.725 0 0 1 1.146 7.406 6.72 6.72 0 0 1-4.774 3.755l-18.185 6.598 7.745 21.212c3.962 10.853-1.651 22.854-12.539 26.804-10.887 3.95-22.926-1.646-26.888-12.499l-7.745-21.212-18.775 6.812a8.545 8.545 0 0 1-.208.072 6.745 6.745 0 0 1-6.093.191 6.735 6.735 0 0 1-3.797-7.299L126.375 160Zm2.522-14H60c-25.405 0-46-20.595-46-46s20.595-46 46-46h140c25.405 0 46 20.595 46 46s-20.595 46-46 46h-10.09l-43.837-36.435c-2.002-1.665-4.615-1.953-6.81-1.094-2.251.74-4.082 2.642-4.545 5.213L128.897 146Zm17.143-18.914 45.366 37.706-20.925 7.592 12.528 34.313c1.321 3.618-.55 7.618-4.179 8.935-3.629 1.317-7.642-.549-8.963-4.167l-12.528-34.313-21.738 7.888 10.439-57.954Z" fill="#000" opacity=".9"/></svg>

<svg width="260" height="260" viewBox="0 0 260 260" fill="none" xmlns="http://www.w3.org/2000/svg">
<g opacity="0.9">
<path fill-rule="evenodd" clip-rule="evenodd" d="M126.375 160H60C26.8629 160 0 133.137 0 100C0 66.8629 26.8629 40 60 40H200C233.137 40 260 66.8629 260 100C260 130.991 236.504 156.494 206.354 159.668L208.467 161.424C209.127 161.83 209.721 162.346 210.22 162.958C212.051 164.945 212.534 167.866 211.366 170.364C210.41 172.409 208.594 173.711 206.592 174.119L188.407 180.717L196.152 201.929C200.114 212.782 194.501 224.783 183.613 228.733C172.726 232.683 160.687 227.087 156.725 216.234L148.98 195.022L130.205 201.834C130.136 201.859 130.066 201.883 129.997 201.906C128.198 202.883 125.961 203.053 123.904 202.097C121.124 200.805 119.565 197.808 120.107 194.798L126.375 160ZM128.897 146H60C34.5949 146 14 125.405 14 100C14 74.5949 34.5949 54 60 54H200C225.405 54 246 74.5949 246 100C246 125.405 225.405 146 200 146H189.91L146.073 109.565C144.071 107.9 141.458 107.612 139.263 108.471C137.012 109.211 135.181 111.113 134.718 113.684L128.897 146ZM146.04 127.086L191.406 164.792L170.481 172.384L183.009 206.697C184.33 210.315 182.459 214.315 178.83 215.632C175.201 216.949 171.188 215.083 169.867 211.465L157.339 177.152L135.601 185.04L146.04 127.086Z" fill="black"/>
</g>
</svg>
